X: 41340
T: Turn Under Lea
R: reel
M: 4/4
K: Adorian
ABAG GB g2|dBgB AG E2|DEGA GABc|BAGA BA A2:|
eaaa eaaf|g2 ga gede|g2 ag e2 af|g2 ed BA A2:|

